svg/system/gesture_unlock_line.svg

<?xml version="1.0" encoding="UTF-8"?>
<svg width="24px" height="24px" viewBox="0 0 24 24" version="1.1" xmlns="http://www.w3.org/2000/svg" xmlns:xlink="http://www.w3.org/1999/xlink">
    <title>gesture_unlock_line</title>
    <g id="Icon" stroke="none" stroke-width="1" fill="none" fill-rule="evenodd">
        <g id="System" transform="translate(-432.000000, -384.000000)">
            <g id="gesture_unlock_line" transform="translate(432.000000, 384.000000)">
                <path d="M24,0 L24,24 L0,24 L0,0 L24,0 Z M12.5935,23.2578 L12.5819,23.2595 L12.5109,23.295 L12.4919,23.2987 L12.4767,23.295 L12.4057,23.2595 C12.3958,23.2564 12.387,23.259 12.3821,23.2649 L12.378,23.2758 L12.3609,23.7031 L12.3659,23.7235 L12.3769,23.7357 L12.4805,23.8097 L12.4953,23.8136 L12.5071,23.8097 L12.6107,23.7357 L12.6233,23.7197 L12.6267,23.7031 L12.6096,23.2758 C12.6076,23.2657 12.601,23.2593 12.5935,23.2578 Z M12.8584,23.1453 L12.8445,23.1473 L12.6598,23.2397 L12.6499,23.2499 L12.6472,23.2611 L12.6651,23.6906 L12.6699,23.7034 L12.6784,23.7105 L12.8793,23.8032 C12.8914,23.8069 12.9022,23.803 12.9078,23.7952 L12.9118,23.7812 L12.8777,23.1665 C12.8753,23.1546 12.8674,23.147 12.8584,23.1453 Z M12.143,23.1473 C12.1332,23.1424 12.1222,23.1453 12.1156,23.1526 L12.1099,23.1665 L12.0758,23.7812 C12.0751,23.7927 12.0828,23.8019 12.0926,23.8046 L12.1083,23.8032 L12.3092,23.7105 L12.3186,23.7024 L12.3225,23.6906 L12.3404,23.2611 L12.3372,23.2485 L12.3278,23.2397 L12.143,23.1473 Z" id="MingCute" fill-rule="nonzero"></path>
                <path d="M12,3 C13.3807,3 14.5,4.11929 14.5,5.5 C14.5,6.52516 13.883,7.4062 13,7.79198 L13,9.70802 C13.883,10.0938 14.5,10.9748 14.5,12 C14.5,13.0252 13.883,13.9062 13,14.292 L13,16.208 C13.5767,16.46 14.04,16.9233 14.292,17.5 L16.208,17.5 C16.5938,16.617 17.4748,16 18.5,16 C19.8807,16 21,17.1193 21,18.5 C21,19.8807 19.8807,21 18.5,21 C17.4748,21 16.5938,20.383 16.208,19.5 L14.292,19.5 C13.9062,20.383 13.0252,21 12,21 C10.6193,21 9.5,19.8807 9.5,18.5 C9.5,17.4748 10.117,16.5938 11,16.208 L11,14.292 C10.117,13.9062 9.5,13.0252 9.5,12 C9.5,10.9748 10.117,10.0938 11,9.70802 L11,7.79198 C10.4233,7.54 9.96,7.07672 9.70802,6.5 L7.79198,6.5 C7.4062,7.38295 6.52516,8 5.5,8 C4.11929,8 3,6.88071 3,5.5 C3,4.11929 4.11929,3 5.5,3 C6.52516,3 7.4062,3.61705 7.79198,4.5 L9.70802,4.5 C10.0938,3.61705 10.9748,3 12,3 Z M5.5,16 C6.88071,16 8,17.1193 8,18.5 C8,19.8807 6.88071,21 5.5,21 C4.11929,21 3,19.8807 3,18.5 C3,17.1193 4.11929,16 5.5,16 Z M12,18 C11.7239,18 11.5,18.2239 11.5,18.5 C11.5,18.7761 11.7239,19 12,19 C12.2761,19 12.5,18.7761 12.5,18.5 C12.5,18.2239 12.2761,18 12,18 Z M18.5,18 C18.2239,18 18,18.2239 18,18.5 C18,18.7761 18.2239,19 18.5,19 C18.7761,19 19,18.7761 19,18.5 C19,18.2239 18.7761,18 18.5,18 Z M5.5,18 C5.22386,18 5,18.2239 5,18.5 C5,18.7761 5.22386,19 5.5,19 C5.77614,19 6,18.7761 6,18.5 C6,18.2239 5.77614,18 5.5,18 Z M5.5,9.5 C6.88071,9.5 8,10.6193 8,12 C8,13.3807 6.88071,14.5 5.5,14.5 C4.11929,14.5 3,13.3807 3,12 C3,10.6193 4.11929,9.5 5.5,9.5 Z M18.5,9.5 C19.8807,9.5 21,10.6193 21,12 C21,13.3807 19.8807,14.5 18.5,14.5 C17.1193,14.5 16,13.3807 16,12 C16,10.6193 17.1193,9.5 18.5,9.5 Z M12,11.5 C11.7239,11.5 11.5,11.7239 11.5,12 C11.5,12.2761 11.7239,12.5 12,12.5 C12.2761,12.5 12.5,12.2761 12.5,12 C12.5,11.7239 12.2761,11.5 12,11.5 Z M5.5,11.5 C5.22386,11.5 5,11.7239 5,12 C5,12.2761 5.22386,12.5 5.5,12.5 C5.77614,12.5 6,12.2761 6,12 C6,11.7239 5.77614,11.5 5.5,11.5 Z M18.5,11.5 C18.2239,11.5 18,11.7239 18,12 C18,12.2761 18.2239,12.5 18.5,12.5 C18.7761,12.5 19,12.2761 19,12 C19,11.7239 18.7761,11.5 18.5,11.5 Z M18.5,3 C19.8807,3 21,4.11929 21,5.5 C21,6.88071 19.8807,8 18.5,8 C17.1193,8 16,6.88071 16,5.5 C16,4.11929 17.1193,3 18.5,3 Z M5.5,5 C5.22386,5 5,5.22386 5,5.5 C5,5.77614 5.22386,6 5.5,6 C5.77614,6 6,5.77614 6,5.5 C6,5.22386 5.77614,5 5.5,5 Z M12,5 C11.7239,5 11.5,5.22386 11.5,5.5 C11.5,5.77614 11.7239,6 12,6 C12.2761,6 12.5,5.77614 12.5,5.5 C12.5,5.22386 12.2761,5 12,5 Z M18.5,5 C18.2239,5 18,5.22386 18,5.5 C18,5.77614 18.2239,6 18.5,6 C18.7761,6 19,5.77614 19,5.5 C19,5.22386 18.7761,5 18.5,5 Z" id="形状" fill="#09244B"></path>
            </g>
        </g>
    </g>
</svg>

<svg xmlns="http://www.w3.org/2000/svg" width="24" height="24"><g fill="none" fill-rule="evenodd"><path d="M24 0v24H0V0h24ZM12.594 23.258l-.012.002-.071.035-.02.004-.014-.004-.071-.036c-.01-.003-.019 0-.024.006l-.004.01-.017.428.005.02.01.013.104.074.015.004.012-.004.104-.074.012-.016.004-.017-.017-.427c-.002-.01-.009-.017-.016-.018Zm.264-.113-.014.002-.184.093-.01.01-.003.011.018.43.005.012.008.008.201.092c.012.004.023 0 .029-.008l.004-.014-.034-.614c-.003-.012-.01-.02-.02-.022Zm-.715.002a.023.023 0 0 0-.027.006l-.006.014-.034.614c0 .012.007.02.017.024l.015-.002.201-.093.01-.008.003-.011.018-.43-.003-.012-.01-.01-.184-.092Z"/><path fill="#09244B" d="M12 3a2.5 2.5 0 0 1 1 4.792v1.916a2.5 2.5 0 0 1 0 4.584v1.916a2.51 2.51 0 0 1 1.292 1.292h1.916a2.5 2.5 0 1 1 0 2h-1.916A2.5 2.5 0 1 1 11 16.208v-1.916a2.5 2.5 0 0 1 0-4.584V7.792A2.51 2.51 0 0 1 9.708 6.5H7.792a2.5 2.5 0 1 1 0-2h1.916A2.5 2.5 0 0 1 12 3ZM5.5 16a2.5 2.5 0 1 1 0 5 2.5 2.5 0 0 1 0-5Zm6.5 2a.5.5 0 1 0 0 1 .5.5 0 0 0 0-1Zm6.5 0a.5.5 0 1 0 0 1 .5.5 0 0 0 0-1Zm-13 0a.5.5 0 1 0 0 1 .5.5 0 0 0 0-1Zm0-8.5a2.5 2.5 0 1 1 0 5 2.5 2.5 0 0 1 0-5Zm13 0a2.5 2.5 0 1 1 0 5 2.5 2.5 0 0 1 0-5Zm-6.5 2a.5.5 0 1 0 0 1 .5.5 0 0 0 0-1Zm-6.5 0a.5.5 0 1 0 0 1 .5.5 0 0 0 0-1Zm13 0a.5.5 0 1 0 0 1 .5.5 0 0 0 0-1Zm0-8.5a2.5 2.5 0 1 1 0 5 2.5 2.5 0 0 1 0-5Zm-13 2a.5.5 0 1 0 0 1 .5.5 0 0 0 0-1ZM12 5a.5.5 0 1 0 0 1 .5.5 0 0 0 0-1Zm6.5 0a.5.5 0 1 0 0 1 .5.5 0 0 0 0-1Z"/></g></svg>
